app/dist/common/images/weg.svg

<svg height="18" width="18" xmlns="http://www.w3.org/2000/svg"><path d="m0 0h18v18h-18z" fill="#005da4"/><path d="m3.045 5h-.045v6h4v-4h-1v3h-.474v-3h-1v3h-.526v-4h11v-1h-11.956zm8.957 2v4h1.998v1h-11v1h12v-6zm1 1h.998v2h-.998zm-5.002 3v-4h3v2.571h-2v.429h2v1zm2-3h-1v.714h1z" fill="#fff"/></svg>

<!-- by TradingView --><svg width="18" height="18" xmlns="http://www.w3.org/2000/svg"><path fill="#005DA4" d="M0 0h18v18H0z"/><path d="M3.045 5H3v6h4V7H6v3h-.474V7h-1v3H4V6h11V5H3.044zm8.957 2v4H14v1H3v1h12V7h-2.998zm1 1H14v2h-.998V8zM8 11V7h3v2.571H9V10h2v1H8zm2-3H9v.714h1V8z" fill="#fff"/></svg>
